!!!OTL: A SCHUESSLA UND A RAINDEL
!!!ARE: Europa, Mitteleuropa, Deutschland, Thueringen
!!!SCT: E0551
!!!YEM: Copyright 1995, estate of Helmut Schaffrath.
**kern
*ICvox
*Ivox
*M2/4
*k[]
*C:
{8c
=1
8.c
16G
8G
8c
=2
8.c
16A
8A}
{8d
=3
8B
8G
8A
8B
=4
4c
8r}
{8c
=5
8.c
16G
8G
8c
=6
8.c
16A
8A}
{8d
=7
8B
8G
8A
8B
=8
4c
8r}
{8c
=9
8B
8c
8d
8B
=10
8c
8d
8e}
{8c
=11
8B
8c
8d
8B
=12
8c
8d
8e}
{8c
=13
8G
8G
8G
8c
=14
8A
8A
8A}
{8d
=15
8B
8G
8A
8B
=16
4c
8r}
==
!!!AGN: Liebes - Lied, Versoehnung
!!!ONB: ESAC (Essen Associative Code) Database: ERK1
!!!AMT: simple duple
!!!AIN: vox
!!!EED: Helmut Schaffrath
!!!EEV: 1.0
*-
